X:164
T:Branle
R:Branle
C:Marie de Bourgogne
M: 4/4
L: 1/8
Q:1/4=150
K:F % 1 flats
V:1 clef=treble
% Staff
F,2 A,2 C2 A,2| \
B,2 G,2 F,3-F,/2z/2| \
C2 A,2 C2 B,2| \
A,2 G,2 F,3-F,/2z/2|
C2 D2 E2 F2| \
E2 D2 C3-C/2z/2| \
C2 F2 C2 D2| \
A,2 B,2 A,3-A,/2z/2|
D2 E2 F2 G2| \
A2 G2 F3-F/2z/2| \
C2 C2 D2 C2| \
B,2 A,2 G,3-G,/2z/2|
C2 A,2 F,2 B,2| \
A,2 G,2 F,3-F,/2z/2| \
F,8| \
F,6- F,2|
F,8| \
F,6- F,2| \
C8| \
C6- C2|
C8| \
C6- C2| \
D8| \
D6- D2|
C8| \
C6- C2| \
F,8| \
F,8 |]
V:2
% Staff-1
% npo m\0zf9!
% By Unregistered User
% Copyright \0za9 2000 by NoteWorthy ArtWare, Inc.
% All Rights Reserved
% Generated by NoteWorthy Composer
F,,8| \
F,,6- F,,2| \
F,,8| \
F,,6- F,,2|
C,8| \
C,6- C,2| \
C,8| \
C,6- C,2|
D,8| \
D,6- D,2| \
C,8| \
C,6- C,2|
F,,8| \
F,,6- F,,2| \
F,,8| \
F,,6- F,,2|
F,,8| \
F,,6- F,,2| \
C,8| \
C,6- C,2|
C,8| \
C,6- C,2| \
D,8| \
D,6- D,2|
C,8| \
C,6- C,2| \
F,,8| \
F,,8 |]
V:3
% Staff-2
z8| \
z8| \
z8| \
z8|
z8| \
z8| \
z8| \
z8|
z8| \
z8| \
z8| \
z8|
z8| \
z8| \
% npo m\0zf9!
% By Unregistered User
% Copyright \0za9 2000 by NoteWorthy ArtWare, Inc.
% All Rights Reserved
% Generated by NoteWorthy Composer
F2 A2 c2 A2| \
B2 G2 F3-F/2z/2|
c2 A2 c2 B2| \
A2 G2 F3-F/2z/2| \
c2 d2 e2 f2| \
e2 d2 c3-c/2z/2|
c2 f2 c2 d2| \
A2 B2 A3-A/2z/2| \
d2 e2 f2 g2| \
a2 g2 f3-f/2z/2|
c2 c2 d2 c2| \
B2 A2 G3-G/2z/2| \
c2 A2 F2 B2| \
A2 G2 F4 |]





